packages/web/src/assets/images/icons/history-open.svg

<svg fill="none" height="24" viewBox="0 0 24 24" width="24" xmlns="http://www.w3.org/2000/svg"><path d="m20.58 10.5h-14.91l-2.25 9h14.91zm-1.08-1.5v-1.5h-8.115l-3.006-3h-5.379v10.5l1.3575-5.4315c.04049-.16232.13408-.30645.2659-.40946s.2943-.15899.4616-.15904zm-.585 12h-16.665c-.19891 0-.38968-.079-.53033-.2197-.14065-.1406-.21967-.3314-.21967-.5303v-16.5c0-.19891.07902-.38968.21967-.53033s.33142-.21967.53033-.21967h6.747l3.009 3h8.244c.1989 0 .3897.07902.5303.21967.1407.14065.2197.33142.2197.53033v2.25h.54c.1139.00003.2263.02602.3287.07598s.1921.12259.2622.21238c.0701.08978.1189.19436.1425.3058.0237.11144.0217.2268-.0059.33734l-2.625 10.5c-.0405.1623-.1341.3065-.2659.4095s-.2943.159-.4616.159z" fill="#606266"/></svg>

<svg width="24" height="24" viewBox="0 0 24 24" fill="none" xmlns="http://www.w3.org/2000/svg">
    <path d="M20.58 10.5H5.67L3.42 19.5H18.33L20.58 10.5ZM19.5 9V7.5H11.385L8.379 4.5H3V15L4.3575 9.5685C4.39799 9.40618 4.49158 9.26205 4.6234 9.15904C4.75522 9.05603 4.9177 9.00005 5.085 9H19.5ZM18.915 21H2.25C2.05109 21 1.86032 20.921 1.71967 20.7803C1.57902 20.6397 1.5 20.4489 1.5 20.25V3.75C1.5 3.55109 1.57902 3.36032 1.71967 3.21967C1.86032 3.07902 2.05109 3 2.25 3H8.997L12.006 6H20.25C20.4489 6 20.6397 6.07902 20.7803 6.21967C20.921 6.36032 21 6.55109 21 6.75V9H21.54C21.6539 9.00003 21.7663 9.02602 21.8687 9.07598C21.9711 9.12594 22.0608 9.19857 22.1309 9.28836C22.201 9.37814 22.2498 9.48272 22.2734 9.59416C22.2971 9.7056 22.2951 9.82096 22.2675 9.9315L19.6425 20.4315C19.602 20.5938 19.5084 20.738 19.3766 20.841C19.2448 20.944 19.0823 21 18.915 21Z" fill="#606266"/>
</svg>
